X: 44
T: Praeludia organi op. 5 – Andante
C: Franciszek Walczyński
%%abc-version 2.0
%%abcx-abcm2ps-target-version 5.9.1 (29 Sep 2008)
%%abc-creator hum2abc beta
%%abcx-conversion-date 2021/10/04 07:38:39
%%abc-edited-by Andrzej Borzym
%%abc-edited-by Katarzyna Serwa
%%abcx-initial-encoding-date 2021-07-26
%%humdrum-veritas 2329494922
%%humdrum-veritas-data 2918032795
%%linebreak <none>
%%barnumbers 0
L: 1/8
M: 2/4
N: Derived from pl-kozmzk--mzk-m-159--033_walczynski-franciszek--praeludia-organi-op-5-andante.krn
Q: "33. Andante."
%%staves {1 2}
V: 1 clef=treble
V: 2 clef=bass
K: Eb
[V:1] z4 & z4 | 
[V:2] z4 & E,2D,C, | 
[V:1] z4 & z4 | 
[V:2] B,2=A,_A, & B,,2C,D, | 
[V:1] z4 & E2DC | 
[V:2] G,2A,=A, & E,2F,^F, | 
[V:1] z4 & G2^F=F | 
[V:2] =B,2CD & G,2=A,B, | 
[V:1] e2dc & G2FE | 
[V:2] E2=B,C & C2G,A, | 
[V:1] B2=A_A & F2ED | 
[V:2] D2CB, & B,2^F,=F, | 
[V:1] G2AG & E4- | 
[V:2] B,2A,B, & E,_D,C,B,, | 
[V:1] F2B2 & E2D2 | 
[V:2] C2A,2 & A,,2B,,2 | 
[V:1] E2z2 & E2DC | 
[V:2] G,2z2 & E,2z2 | 
[V:1] B2=A_A & B,2CD | 
[V:2] z4 & z4 | 
[V:1] G4 & E4 | 
[V:2] z4 & E,2D,C, | 
[V:1] B2cd & D2EF | 
[V:2] B,2=A,_A, & B,,4 | 
[V:1] e2dc & G2FE | 
[V:2] G,2=B,C & C,2G,A, | 
[V:1] B2AF & G2F_E | 
[V:2] C4 & =E,2F,A, | 
[V:1] G2F2 & E3D | 
[V:2] B,3A, & B,2B,,2 | 
[V:1] E4- & B,4 | 
[V:2] G,4 & E,2D,_D, | 
[V:1] E4- & A,2DC | 
[V:2] E,4- & C,2B,,A,, | 
[V:1] E4 & B,2A,G, | 
[V:2] E,4 & G,,2F,,E,, | 
[V:1] E4 & C4 | 
[V:2] A,2G,A, & E,,4- | 
[V:1] F2EF & _C4 | 
[V:2] A,4 & E,,4- | 
[V:1] !fermata!G4 & E4 |]  
[V:2] B,4 & !fermata!E,,4 |]  


